src/fileIcons/FileIconBmp/FileIconBmp_size_s.svg

<svg viewBox="0 0 21 28" xmlns="http://www.w3.org/2000/svg">
  <path
    d="M19.6 0H1.4C0.626801 0 0 0.626801 0 1.4V26.6C0 27.3732 0.626801 28 1.4 28H19.6C20.3732 28 21 27.3732 21 26.6V1.4C21 0.626801 20.3732 0 19.6 0Z"
  />
  <path
    opacity="0.6"
    fill-rule="evenodd"
    clip-rule="evenodd"
    d="M6 14C5.85778 14 5.5 14 5.5 14C5.5 14 5.5 14.3661 5.5 14.5V20.6667L7.5 19L13 24H15.5V14.5C15.5 14.3578 15.5 14 15.5 14C15.5 14 15.1339 14 15 14H6ZM5.5 23.5V22.3333L7.60819 20.5224L11.5 24H6C5.84938 24 5.5 24 5.5 24C5.5 24 5.5 23.6255 5.5 23.5ZM4.5 14.5V22V23.5V24C4.5 24.2762 4.5 25 4.5 25C4.5 25 5.2239 25 5.5 25H6H15H15.5C15.7464 25 16.5 25 16.5 25C16.5 25 16.5 24.3058 16.5 24V23.5V23V14.5C16.5 14.1158 16.5 13 16.5 13C16.5 13 15.4443 13 15 13H6C5.55575 13 4.5 13 4.5 13C4.5 13 4.5 14.1158 4.5 14.5ZM10.5 17.5C10.5 16.6716 11.1716 16 12 16C12.8284 16 13.5 16.6716 13.5 17.5C13.5 18.3284 12.8284 19 12 19C11.1716 19 10.5 18.3284 10.5 17.5ZM12 15C10.6193 15 9.5 16.1193 9.5 17.5C9.5 18.8807 10.6193 20 12 20C13.3807 20 14.5 18.8807 14.5 17.5C14.5 16.1193 13.3807 15 12 15Z"
    fill="#fff"
  />
  <path
    fill-rule="evenodd"
    clip-rule="evenodd"
    d="M4 8.77C4.22 8.92333 4.48667 9 4.8 9H5.3C5.88667 9 6.31667 8.87667 6.59 8.63C6.86333 8.37667 7 7.96667 7 7.4V5.6C7 5.04 6.86333 4.63333 6.59 4.38C6.31 4.12667 5.82 4 5.24 4H4V2H3V9H4V8.77ZM4.65 8C4.43 8 4.26667 7.94333 4.16 7.83C4.05333 7.71 4 7.58333 4 7.45V5H5.25C5.49667 5 5.68333 5.05667 5.81 5.17C5.93667 5.28333 6 5.44333 6 5.65V7.35C6 7.55667 5.93667 7.71667 5.81 7.83C5.68333 7.94333 5.49667 8 5.25 8H4.65Z"
    fill="#fff"
  />
  <path
    d="M9.5 4C9.88418 4 10.2346 4.14443 10.5 4.38195C10.7654 4.14443 11.1158 4 11.5 4C12.2974 4 12.9495 4.62226 12.9972 5.40771L13 5.41V9H12V5.5C12 5.22386 11.7761 5 11.5 5C11.2239 5 11 5.22386 11 5.5V9H10V5.5C10 5.22386 9.77614 5 9.5 5C9.22386 5 9 5.22386 9 5.5V9H8V4H8.8V4.17301C9.00897 4.06255 9.24718 4 9.5 4Z"
    fill="#fff"
  />
  <path
    fill-rule="evenodd"
    clip-rule="evenodd"
    d="M14.8 4.24V4H14V11H15.01V9H16.3C16.88 9 17.3067 8.87333 17.58 8.62C17.86 8.36667 18 7.96 18 7.4V5.6C18 5.03333 17.8633 4.62667 17.59 4.38C17.3167 4.12667 16.8867 4 16.3 4H15.6C15.2733 4 15.0067 4.08 14.8 4.24ZM15.16 5.18C15.2667 5.06 15.43 5 15.65 5H16.25C16.4967 5 16.6833 5.05667 16.81 5.17C16.9367 5.28333 17 5.44333 17 5.65V7.35C17 7.55667 16.9367 7.71667 16.81 7.83C16.6833 7.94333 16.4967 8 16.25 8H15.01L15 5.55C15 5.41667 15.0533 5.29333 15.16 5.18Z"
    fill="#fff"
  />
</svg>

<svg viewBox="0 0 21 28" xmlns="http://www.w3.org/2000/svg">
  <path
    d="M19.6 0H1.4A1.4 1.4 0 000 1.4v25.2A1.4 1.4 0 001.4 28h18.2a1.4 1.4 0 001.4-1.4V1.4A1.4 1.4 0 0019.6 0z"
  />
  <path
    fill="#fff"
    fill-rule="evenodd"
    d="M6.5 14a.5.5 0 00-.5.5v6.167L8 19l4.5 4h2a.5.5 0 00.5-.5v-8a.5.5 0 00-.5-.5h-8zM6 22.5v-.167l2.108-1.81L11 23H6.5a.5.5 0 01-.5-.5zm-1-8V23a1 1 0 001 1h9a1 1 0 001-1v-8.5a1.5 1.5 0 00-1.5-1.5h-8A1.5 1.5 0 005 14.5zm5 3a1.5 1.5 0 113 0 1.5 1.5 0 01-3 0zm1.5-2.5a2.5 2.5 0 100 5 2.5 2.5 0 000-5z"
    clip-rule="evenodd"
    opacity=".6"
  />
  <path
    fill="#fff"
    fill-rule="evenodd"
    d="M4 8.77c.22.153.487.23.8.23h.5c.587 0 1.017-.123 1.29-.37.273-.253.41-.663.41-1.23V5.6c0-.56-.137-.967-.41-1.22C6.31 4.127 5.82 4 5.24 4H4V2H3v7h1v-.23zM4.65 8c-.22 0-.383-.057-.49-.17A.566.566 0 014 7.45V5h1.25c.247 0 .433.057.56.17.127.113.19.273.19.48v1.7c0 .207-.063.367-.19.48-.127.113-.313.17-.56.17h-.6z"
    clip-rule="evenodd"
  />
  <path
    fill="#fff"
    d="M9.5 4c.384 0 .735.144 1 .382a1.5 1.5 0 012.497 1.026L13 5.41V9h-1V5.5a.5.5 0 00-1 0V9h-1V5.5a.5.5 0 00-1 0V9H8V4h.8v.173c.209-.11.447-.173.7-.173z"
  />
  <path
    fill="#fff"
    fill-rule="evenodd"
    d="M14.8 4.24V4H14v7h1.01V9h1.29c.58 0 1.007-.127 1.28-.38.28-.253.42-.66.42-1.22V5.6c0-.567-.137-.973-.41-1.22-.273-.253-.703-.38-1.29-.38h-.7c-.327 0-.593.08-.8.24zm.36.94c.107-.12.27-.18.49-.18h.6c.247 0 .433.057.56.17.127.113.19.273.19.48v1.7c0 .207-.063.367-.19.48-.127.113-.313.17-.56.17h-1.24L15 5.55a.53.53 0 01.16-.37z"
    clip-rule="evenodd"
  />
</svg>
